src/assets/outline/SliderVertical1.svg

<svg width="24" height="24" viewBox="0 0 24 24"  xmlns="http://www.w3.org/2000/svg">
<path d="M17 18.75H7C6.25 18.75 5.7 18.72 5.23 18.65C1.91 18.29 1.25 16.3 1.25 13V11C1.25 7.7 1.91 5.71 5.26 5.34C5.7 5.28 6.25 5.25 7 5.25H17C17.75 5.25 18.3 5.28 18.77 5.35C22.1 5.72 22.75 7.7 22.75 11V13C22.75 16.3 22.09 18.29 18.74 18.66C18.3 18.72 17.75 18.75 17 18.75ZM7 6.75C6.32 6.75 5.84 6.78 5.45 6.83C3.42 7.06 2.75 7.69 2.75 11V13C2.75 16.31 3.42 16.94 5.42 17.17C5.84 17.23 6.32 17.25 7 17.25H17C17.68 17.25 18.16 17.22 18.55 17.17C20.58 16.95 21.25 16.31 21.25 13V11C21.25 7.69 20.58 7.06 18.58 6.83C18.16 6.77 17.68 6.75 17 6.75H7Z" />
<path d="M15.3301 22.7497H8.67008C5.57008 22.7497 4.58008 21.7597 4.58008 18.6697V18.3297C4.58008 18.1597 4.58008 18.0097 4.59008 17.8597C4.60008 17.6497 4.70008 17.4597 4.87008 17.3297C5.03008 17.1997 5.24008 17.1397 5.45008 17.1697C5.85008 17.2297 6.33008 17.2497 7.00008 17.2497H17.0001C17.6801 17.2497 18.1601 17.2197 18.5501 17.1697C18.7601 17.1397 18.9701 17.1997 19.1301 17.3297C19.2901 17.4597 19.3901 17.6497 19.4101 17.8597C19.4201 18.0197 19.4201 18.1597 19.4201 18.3297V18.6697C19.4201 21.7597 18.4301 22.7497 15.3301 22.7497ZM6.08008 18.7297C6.09008 20.9197 6.44008 21.2497 8.67008 21.2497H15.3301C17.5601 21.2497 17.9101 20.9197 17.9201 18.7297C17.6501 18.7397 17.3501 18.7497 17.0001 18.7497H7.00008C6.65008 18.7497 6.35008 18.7397 6.08008 18.7297Z" />
<path d="M18.6601 6.84C18.6201 6.84 18.5901 6.84 18.5501 6.83C18.1501 6.77 17.6701 6.75 17.0001 6.75H7.00008C6.32008 6.75 5.84008 6.78 5.45008 6.83C5.24008 6.86 5.03008 6.8 4.87008 6.67C4.71008 6.54 4.61008 6.35 4.59008 6.14C4.58008 5.98 4.58008 5.84 4.58008 5.67V5.33C4.58008 2.24 5.57008 1.25 8.67008 1.25H15.3301C18.4301 1.25 19.4201 2.24 19.4201 5.33V5.67C19.4201 5.84 19.4201 5.99 19.4101 6.14C19.4001 6.35 19.3001 6.54 19.1301 6.67C19.0001 6.78 18.8301 6.84 18.6601 6.84ZM7.00008 5.25H17.0001C17.3501 5.25 17.6501 5.26 17.9201 5.27C17.9101 3.08 17.5601 2.75 15.3301 2.75H8.67008C6.44008 2.75 6.09008 3.08 6.08008 5.27C6.35008 5.26 6.65008 5.25 7.00008 5.25Z" />
</svg>

<?xml version="1.0" encoding="UTF-8"?>
<svg width="24" height="24" viewBox="0 0 24 24" xmlns="http://www.w3.org/2000/svg">
 <path d="m17 18.75h-10c-0.75 0-1.3-0.03-1.77-0.1-3.32-0.36-3.98-2.35-3.98-5.65v-2c0-3.3 0.66-5.29 4.01-5.66 0.44-0.06 0.99-0.09 1.74-0.09h10c0.75 0 1.3 0.03 1.77 0.1 3.33 0.37 3.98 2.35 3.98 5.65v2c0 3.3-0.66 5.29-4.01 5.66-0.44 0.06-0.99 0.09-1.74 0.09zm-10-12c-0.68 0-1.16 0.03-1.55 0.08-2.03 0.23-2.7 0.86-2.7 4.17v2c0 3.31 0.67 3.94 2.67 4.17 0.42 0.06 0.9 0.08 1.58 0.08h10c0.68 0 1.16-0.03 1.55-0.08 2.03-0.22 2.7-0.86 2.7-4.17v-2c0-3.31-0.67-3.94-2.67-4.17-0.42-0.06-0.9-0.08-1.58-0.08h-10z"/>
 <path d="m15.33 22.75h-6.66c-3.1 0-4.09-0.99-4.09-4.08v-0.34c0-0.17 0-0.32 0.01-0.47 0.01-0.21 0.11-0.4 0.28-0.53 0.16-0.13 0.37-0.19 0.58-0.16 0.4 0.06 0.88 0.08 1.55 0.08h10c0.68 0 1.16-0.03 1.55-0.08 0.21-0.03 0.42 0.03 0.58 0.16s0.26 0.32 0.28 0.53c0.01 0.16 0.01 0.3 0.01 0.47v0.34c0 3.09-0.99 4.08-4.09 4.08zm-9.25-4.02c0.01 2.19 0.36 2.52 2.59 2.52h6.66c2.23 0 2.58-0.33 2.59-2.52-0.27 0.01-0.57 0.02-0.92 0.02h-10c-0.35 0-0.65-0.01-0.92-0.02z"/>
 <path d="m18.66 6.84c-0.04 0-0.07 0-0.11-0.01-0.4-0.06-0.88-0.08-1.55-0.08h-10c-0.68 0-1.16 0.03-1.55 0.08-0.21 0.03-0.42-0.03-0.58-0.16s-0.26-0.32-0.28-0.53c-0.01-0.16-0.01-0.3-0.01-0.47v-0.34c0-3.09 0.99-4.08 4.09-4.08h6.66c3.1 0 4.09 0.99 4.09 4.08v0.34c0 0.17 0 0.32-0.01 0.47-0.01 0.21-0.11 0.4-0.28 0.53-0.13 0.11-0.3 0.17-0.47 0.17zm-11.66-1.59h10c0.35 0 0.65 0.01 0.92 0.02-0.01-2.19-0.36-2.52-2.59-2.52h-6.66c-2.23 0-2.58 0.33-2.59 2.52 0.27-0.01 0.57-0.02 0.92-0.02z"/>
</svg>
